public/images/delete-site/export-content.svg

<?xml version="1.0" encoding="UTF-8" standalone="no"?>
<svg width="158px" height="174px" viewBox="0 0 158 174" version="1.1" xmlns="http://www.w3.org/2000/svg" xmlns:xlink="http://www.w3.org/1999/xlink" xmlns:sketch="http://www.bohemiancoding.com/sketch/ns">
    <!-- Generator: Sketch 3.4.3 (16044) - http://www.bohemiancoding.com/sketch -->
    <title>figure</title>
    <desc>Created with Sketch.</desc>
    <defs></defs>
    <g id="web" stroke="none" stroke-width="1" fill="none" fill-rule="evenodd" sketch:type="MSPage">
        <g id="settings---delete-cake" sketch:type="MSArtboardGroup" transform="translate(-798.000000, -188.000000)">
            <g id="export" sketch:type="MSLayerGroup" transform="translate(355.000000, 156.000000)">
                <g id="figure" transform="translate(443.000000, 27.000000)">
                    <rect id="Rectangle-92" fill="#D5E5EB" sketch:type="MSShapeGroup" x="57" y="157" width="45" height="22" rx="4"></rect>
                    <text id=".ZIP" sketch:type="MSTextLayer" font-family="Open Sans" font-size="11" font-weight="526" fill="#FFFFFF">
                        <tspan x="69.7356338" y="172">.ZIP</tspan>
                    </text>
                    <g id="ic_file_download_black_24px" transform="translate(61.000000, 118.000000)" sketch:type="MSShapeGroup">
                        <path d="M28.5,13.5 L22.5,13.5 L22.5,4.5 L13.5,4.5 L13.5,13.5 L7.5,13.5 L18,24 L28.5,13.5 L28.5,13.5 Z M7.5,27 L7.5,30 L28.5,30 L28.5,27 L7.5,27 L7.5,27 Z" id="Shape" fill="#D5E5EB"></path>
                        <path d="M0,0 L36,0 L36,36 L0,36 L0,0 Z" id="Shape"></path>
                    </g>
                    <path d="M1.66402257,18.6160391 L63.7240716,22.1164462 L78.0639998,46.6858693 L15.987245,42.957069 L1.66402257,18.6160391 Z" id="Rectangle-86-Copy-5" fill="#D5E5EB" sketch:type="MSShapeGroup" transform="translate(39.864011, 32.650954) rotate(-32.000000) translate(-39.864011, -32.650954) "></path>
                    <path d="M79.8684447,18.6160391 L141.928494,22.1164462 L156.268422,46.6858693 L94.1916671,42.957069 L79.8684447,18.6160391 Z" id="Rectangle-86-Copy-2" fill="#D5E5EB" sketch:type="MSShapeGroup" transform="translate(118.068433, 32.650954) scale(-1, 1) rotate(-32.000000) translate(-118.068433, -32.650954) "></path>
                    <path d="M118.89899,43.8461538 C118.89899,64.9438193 101.714188,82.1118881 80.5959596,82.1118881 C59.4777312,82.1118881 42.2929293,64.9438193 42.2929293,43.8461538 C42.2929293,22.7484884 59.4777312,5.58041958 80.5959596,5.58041958 C101.714188,5.58041958 118.89899,22.7484884 118.89899,43.8461538 L118.89899,43.8461538 Z M65.5487615,74.8090199 L49.1329666,29.8379516 C47.2089759,34.1089962 46.1409106,38.849532 46.1409106,43.8461538 C46.1409106,57.470227 54.0917358,69.2133921 65.5487615,74.8090199 L65.5487615,74.8090199 Z M101.201517,53.2418634 C102.696808,48.4586466 103.851792,45.0412222 103.851792,42.0947606 C103.851792,37.866397 102.312305,34.9199354 100.987904,32.6136891 C99.277526,29.7952706 97.609871,27.4036622 97.609871,24.5425627 C97.609871,21.3826961 100.00381,18.4347628 103.381843,18.4347628 L103.851792,18.4774438 C97.7380389,12.8832878 89.5736006,9.42465412 80.5959596,9.42465412 C68.58354,9.42465412 57.9824398,15.6163443 51.8259643,24.9266918 L54.0490132,24.9693728 C57.6391857,24.9693728 63.1975447,24.5425627 63.1975447,24.5425627 C65.0788127,24.4572006 65.2924258,27.1475761 63.4538803,27.4036622 C63.4538803,27.4036622 61.5726123,27.6170672 59.4777312,27.7024293 L72.0455447,64.9865003 L79.5706169,42.3935277 L74.225871,27.7024293 C72.3460761,27.6170672 70.5929759,27.4036622 70.5929759,27.4036622 C68.7544305,27.2756192 68.9680435,24.4572006 70.806589,24.5425627 C70.806589,24.5425627 76.4916426,24.9693728 79.8696752,24.9693728 C83.5025703,24.9693728 89.0609293,24.5425627 89.0609293,24.5425627 C90.8980016,24.4572006 91.1543372,27.1475761 89.2745423,27.4036622 C89.2745423,27.4036622 87.4359969,27.6170672 85.3411158,27.7024293 L97.7807615,64.6877332 L101.201517,53.2418634 L101.201517,53.2418634 Z M92.0102626,76.3043271 C91.9248174,76.1321313 91.8393722,76.0040882 91.7966496,75.8333642 L81.1940761,46.8352964 L70.8493116,76.8591802 C73.9695354,77.7554814 77.2194002,78.2249726 80.5959596,78.2249726 C84.6148314,78.2249726 88.4613395,77.5420764 92.0102626,76.3043271 L92.0102626,76.3043271 Z M111.03361,30.8637676 C111.03361,34.3650823 110.391298,38.2946789 108.426057,43.2059387 L97.9089293,73.5697988 C108.125526,67.6341947 115.008286,56.529773 115.008286,43.8461538 C115.008286,37.866397 113.512995,32.22956 110.819997,27.3183002 C110.948165,28.4294782 111.03361,29.6245465 111.03361,30.8637676 L111.03361,30.8637676 Z" id="WordPress-Logo" fill="#A8BECE" sketch:type="MSShapeGroup"></path>
                    <path d="M133.262626,53.9382809 L133.262626,91.6525738 L79,113.728491 L79,76.0141977 L133.262626,53.9382809 Z" id="Rectangle-86" fill="#D5E5EB" sketch:type="MSShapeGroup"></path>
                    <path d="M24.7373737,53.9382809 L24.7373737,91.6525738 L79,113.728491 L79,76.0141977 L24.7373737,53.9382809 Z" id="Rectangle-86-Copy" fill="#D5E5EB" sketch:type="MSShapeGroup"></path>
                    <path d="M82.7600615,54.1921775 L139.609794,63.627632 L151.104235,91.2818197 L92.9139902,80.1619776 L82.7600615,54.1921775 Z" id="Rectangle-86-Copy-3" stroke="#FFFFFF" stroke-width="2.4" fill="#D5E5EB" sketch:type="MSShapeGroup" transform="translate(116.932148, 72.736999) scale(-1, -1) rotate(-32.000000) translate(-116.932148, -72.736999) "></path>
                    <path d="M6.71591232,54.1921775 L63.565645,63.627632 L75.060086,91.2818197 L17.4870384,80.4173803 L6.71591232,54.1921775 Z" id="Rectangle-86-Copy-4" stroke="#FFFFFF" stroke-width="2.4" fill="#D5E5EB" sketch:type="MSShapeGroup" transform="translate(40.887999, 72.736999) scale(1, -1) rotate(-32.000000) translate(-40.887999, -72.736999) "></path>
                </g>
            </g>
        </g>
    </g>
</svg>

<svg width="158" height="174" viewBox="0 0 158 174" xmlns="http://www.w3.org/2000/svg"><title>figure</title><g transform="translate(0 -5)" fill="none" fill-rule="evenodd"><rect fill="#D5E5EB" x="57" y="157" width="45" height="22" rx="4"/><text font-family="Open Sans" font-size="11" font-weight="526" fill="#FFF"><tspan x="69.736" y="172">.ZIP</tspan></text><path d="M89.5 131.5h-6v-9h-9v9h-6L79 142l10.5-10.5zm-21 13.5v3h21v-3h-21z" fill="#D5E5EB"/><path d="M61 118h36v36H61v-36z"/><path d="M.03 40.992l54.486-29.92 25.18 13.238-54.62 29.734L.032 40.992z" fill="#D5E5EB"/><path d="M157.9 40.992l-54.484-29.92-25.18 13.238 54.62 29.734L157.9 40.992z" fill="#D5E5EB"/><path d="M118.9 43.846c0 21.098-17.186 38.266-38.304 38.266-21.118 0-38.303-17.168-38.303-38.266S59.478 5.58 80.596 5.58 118.9 22.748 118.9 43.846zM65.55 74.81L49.132 29.837a34.013 34.013 0 0 0-2.992 14.008c0 13.624 7.952 25.367 19.41 30.963zM101.2 53.24c1.495-4.783 2.65-8.2 2.65-11.147 0-4.23-1.54-7.175-2.864-9.48-1.71-2.82-3.378-5.21-3.378-8.072 0-3.16 2.394-6.108 5.772-6.108l.47.042c-6.114-5.594-14.278-9.052-23.256-9.052-12.012 0-22.614 6.19-28.77 15.502l2.223.042c3.59 0 9.148-.427 9.148-.427 1.88-.086 2.094 2.605.256 2.86 0 0-1.88.214-3.976.3l12.568 37.284 7.525-22.593-5.344-14.692c-1.88-.085-3.633-.298-3.633-.298-1.84-.128-1.625-2.947.214-2.86 0 0 5.685.425 9.063.425 3.633 0 9.19-.427 9.19-.427 1.838-.086 2.094 2.605.215 2.86 0 0-1.84.214-3.934.3l12.44 36.985 3.422-11.446zM92.01 76.304c-.085-.172-.17-.3-.213-.47l-10.603-29L70.85 76.86c3.12.895 6.37 1.365 9.746 1.365 4.02 0 7.865-.683 11.414-1.92zm19.024-45.44c0 3.5-.643 7.43-2.608 12.342L97.91 73.57c10.216-5.936 17.098-17.04 17.098-29.724 0-5.98-1.495-11.616-4.188-16.528a31.01 31.01 0 0 1 .214 3.546z" fill="#A8BECE"/><path d="M133.263 53.938v37.715L79 113.728V76.014l54.263-22.076zM24.737 53.938v37.715L79 113.728V76.014L24.737 53.938z" fill="#D5E5EB"/><path d="M155.74 70.355L102.527 92.48 78.125 75.12l55.24-21.407 22.374 16.642z" stroke="#FFF" stroke-width="2.4" fill="#D5E5EB"/><path d="M2.08 70.355L55.294 92.48l24.402-17.36-54.582-21.297L2.08 70.355z" stroke="#FFF" stroke-width="2.4" fill="#D5E5EB"/></g></svg>
